icons/sx.svg

<?xml version="1.0" ?>
<svg xmlns="http://www.w3.org/2000/svg" xmlns:ev="http://www.w3.org/2001/xml-events" xmlns:xlink="http://www.w3.org/1999/xlink" baseProfile="full" height="534px" version="1.1" viewBox="-1028.9955186740483 -345.9193806899207 12296.752417189373 10939.83876137984" width="600px">
	<defs/>
	<path d="M 8923.0,9643.0 C 8891.0,9624.0 8847.0,9591.0 8825.0,9570.0 C 8775.0,9523.0 8729.0,9516.0 8599.0,9535.0 C 8547.0,9543.0 8451.0,9550.0 8384.0,9550.0 L 8263.0,9550.0 L 8184.0,9503.0 L 8105.0,9455.0 L 8097.0,9400.0 C 8091.0,9358.0 8082.0,9338.0 8058.0,9313.0 L 8026.0,9280.0 L 8068.0,9107.0 C 8091.0,9013.0 8110.0,8932.0 8110.0,8928.0 C 8110.0,8925.0 8090.0,8914.0 8065.0,8905.0 C 8031.0,8891.0 8006.0,8889.0 7955.0,8895.0 C 7890.0,8902.0 7889.0,8902.0 7874.0,8940.0 C 7861.0,8972.0 7850.0,8981.0 7797.0,9004.0 C 7752.0,9023.0 7718.0,9030.0 7672.0,9030.0 C 7616.0,9030.0 7602.0,9034.0 7552.0,9067.0 C 7521.0,9087.0 7441.0,9127.0 7376.0,9155.0 C 7259.0,9206.0 7256.0,9207.0 7206.0,9196.0 C 7162.0,9186.0 7152.0,9179.0 7133.0,9145.0 C 7114.0,9111.0 7110.0,9090.0 7110.0,9003.0 C 7110.0,8947.0 7105.0,8879.0 7098.0,8851.0 C 7089.0,8811.0 7090.0,8785.0 7100.0,8731.0 C 7111.0,8671.0 7111.0,8653.0 7096.0,8596.0 C 7087.0,8560.0 7075.0,8477.0 7070.0,8413.0 C 7058.0,8276.0 7052.0,8246.0 7016.0,8166.0 C 6973.0,8072.0 6882.0,7976.0 6735.0,7872.0 L 6605.0,7779.0 L 6555.0,7785.0 C 6528.0,7788.0 6441.0,7797.0 6363.0,7804.0 C 6224.0,7817.0 6218.0,7819.0 6153.0,7858.0 C 6101.0,7889.0 6079.0,7909.0 6061.0,7944.0 C 6031.0,7999.0 5979.0,8023.0 5898.0,8018.0 C 5846.0,8015.0 5845.0,8015.0 5829.0,7971.0 C 5816.0,7936.0 5805.0,7924.0 5777.0,7912.0 C 5742.0,7899.0 5740.0,7896.0 5746.0,7861.0 C 5751.0,7832.0 5746.0,7811.0 5726.0,7772.0 L 5700.0,7720.0 L 5645.0,7720.0 L 5590.0,7720.0 L 5597.0,7587.0 L 5603.0,7454.0 L 5539.0,7408.0 C 5504.0,7383.0 5444.0,7338.0 5406.0,7307.0 C 5369.0,7277.0 5321.0,7248.0 5301.0,7242.0 C 5245.0,7225.0 5177.0,7148.0 5139.0,7057.0 L 5107.0,6980.0 L 5000.0,6923.0 L 4892.0,6865.0 L 4878.0,6800.0 L 4864.0,6735.0 L 4922.0,6592.0 C 4954.0,6513.0 4980.0,6443.0 4980.0,6437.0 C 4980.0,6430.0 4985.0,6409.0 4990.0,6390.0 C 4998.0,6361.0 5011.0,6347.0 5064.0,6317.0 L 5129.0,6279.0 L 5136.0,6224.0 L 5143.0,6168.0 L 5053.0,6037.0 C 5004.0,5964.0 4917.0,5835.0 4859.0,5750.0 L 4753.0,5595.0 L 4761.0,5531.0 L 4768.0,5468.0 L 4638.0,5341.0 C 4486.0,5193.0 4410.0,5149.0 4228.0,5100.0 C 4045.0,5050.0 4052.0,5054.0 4045.0,5011.0 C 4040.0,4979.0 4028.0,4965.0 3969.0,4920.0 L 3899.0,4866.0 L 3762.0,4851.0 L 3625.0,4836.0 L 3490.0,4889.0 C 3416.0,4917.0 3325.0,4959.0 3288.0,4981.0 C 3230.0,5015.0 3213.0,5020.0 3158.0,5021.0 L 3095.0,5022.0 L 3027.0,5101.0 C 2970.0,5167.0 2945.0,5187.0 2880.0,5220.0 C 2805.0,5258.0 2798.0,5264.0 2725.0,5365.0 C 2649.0,5471.0 2630.0,5506.0 2630.0,5538.0 C 2630.0,5564.0 2756.0,5686.0 2809.0,5711.0 C 2889.0,5748.0 2891.0,5776.0 2816.0,5818.0 C 2787.0,5835.0 2760.0,5858.0 2757.0,5869.0 C 2754.0,5882.0 2769.0,5912.0 2805.0,5963.0 C 2850.0,6025.0 2900.0,6125.0 2900.0,6153.0 C 2900.0,6162.0 2790.0,6162.0 2738.0,6154.0 C 2712.0,6149.0 2699.0,6141.0 2694.0,6126.0 C 2690.0,6115.0 2669.0,6074.0 2647.0,6037.0 C 2614.0,5980.0 2598.0,5964.0 2556.0,5943.0 C 2399.0,5865.0 2309.0,5797.0 2275.0,5732.0 C 2262.0,5706.0 2238.0,5665.0 2221.0,5641.0 C 2193.0,5599.0 2185.0,5594.0 2098.0,5568.0 C 1979.0,5532.0 1857.0,5530.0 1744.0,5561.0 C 1663.0,5583.0 1503.0,5665.0 1360.0,5758.0 C 1313.0,5789.0 1217.0,5842.0 1146.0,5877.0 C 1030.0,5935.0 1004.0,5943.0 901.0,5960.0 C 795.0,5977.0 776.0,5978.0 695.0,5965.0 C 645.0,5958.0 588.0,5944.0 566.0,5935.0 C 545.0,5926.0 498.0,5913.0 461.0,5907.0 L 395.0,5895.0 L 390.0,5760.0 C 387.0,5686.0 381.0,5618.0 376.0,5610.0 C 371.0,5602.0 345.0,5565.0 318.0,5528.0 C 278.0,5474.0 255.0,5453.0 201.0,5424.0 C 163.0,5404.0 125.0,5375.0 116.0,5360.0 C 108.0,5345.0 84.0,5318.0 64.0,5300.0 C 32.0,5273.0 25.0,5258.0 14.0,5197.0 C 6.0,5157.0 0.0,5121.0 0.0,5115.0 C 0.0,5110.0 35.0,5089.0 77.0,5070.0 C 119.0,5051.0 186.0,5015.0 224.0,4990.0 C 284.0,4951.0 503.0,4860.0 620.0,4825.0 C 634.0,4821.0 690.0,4796.0 745.0,4770.0 C 829.0,4730.0 857.0,4711.0 918.0,4648.0 L 991.0,4574.0 L 965.0,4464.0 C 951.0,4404.0 937.0,4347.0 934.0,4338.0 C 930.0,4325.0 942.0,4317.0 990.0,4299.0 C 1045.0,4279.0 1057.0,4269.0 1129.0,4181.0 L 1208.0,4084.0 L 1280.0,4073.0 C 1339.0,4064.0 1390.0,4043.0 1538.0,3970.0 C 1746.0,3868.0 1801.0,3832.0 1861.0,3757.0 C 1905.0,3701.0 1905.0,3706.0 1884.0,3570.0 C 1879.0,3537.0 1883.0,3530.0 1976.0,3436.0 C 2057.0,3353.0 2086.0,3331.0 2151.0,3301.0 C 2216.0,3271.0 2234.0,3257.0 2262.0,3215.0 C 2287.0,3178.0 2303.0,3164.0 2330.0,3158.0 C 2485.0,3122.0 2488.0,3121.0 2507.0,3074.0 C 2526.0,3026.0 2544.0,3016.0 2601.0,3022.0 C 2632.0,3025.0 2637.0,3031.0 2696.0,3143.0 C 2774.0,3293.0 2793.0,3308.0 2923.0,3321.0 C 2974.0,3325.0 3089.0,3330.0 3178.0,3330.0 C 3424.0,3330.0 3517.0,3302.0 3740.0,3159.0 C 3804.0,3118.0 3883.0,3072.0 3915.0,3057.0 C 3971.0,3030.0 3980.0,3021.0 4049.0,2917.0 C 4136.0,2788.0 4149.0,2756.0 4149.0,2675.0 L 4150.0,2615.0 L 4104.0,2585.0 C 4078.0,2567.0 4042.0,2529.0 4018.0,2492.0 L 3977.0,2429.0 L 3991.0,2368.0 L 4005.0,2307.0 L 4088.0,2276.0 C 4161.0,2249.0 4174.0,2240.0 4200.0,2200.0 C 4216.0,2175.0 4249.0,2141.0 4272.0,2123.0 C 4325.0,2083.0 4385.0,2080.0 4486.0,2111.0 C 4524.0,2123.0 4566.0,2132.0 4580.0,2132.0 C 4664.0,2130.0 5030.0,2037.0 5066.0,2008.0 C 5073.0,2004.0 5080.0,1986.0 5084.0,1969.0 C 5087.0,1953.0 5106.0,1897.0 5127.0,1845.0 L 5164.0,1750.0 L 5201.0,1750.0 C 5223.0,1750.0 5272.0,1766.0 5322.0,1789.0 C 5455.0,1852.0 5449.0,1853.0 5570.0,1761.0 C 5628.0,1717.0 5690.0,1661.0 5708.0,1636.0 C 5749.0,1581.0 5814.0,1555.0 5885.0,1566.0 C 5938.0,1573.0 5942.0,1577.0 5993.0,1659.0 L 6030.0,1720.0 L 6090.0,1720.0 C 6139.0,1720.0 6335.0,1683.0 6437.0,1654.0 C 6454.0,1649.0 6465.0,1630.0 6484.0,1571.0 C 6506.0,1507.0 6570.0,1251.0 6570.0,1228.0 C 6570.0,1223.0 6585.0,1220.0 6604.0,1220.0 C 6637.0,1220.0 6638.0,1221.0 6655.0,1285.0 C 6674.0,1355.0 6672.0,1386.0 6630.0,1619.0 C 6619.0,1682.0 6611.0,1734.0 6612.0,1735.0 C 6614.0,1736.0 6651.0,1764.0 6695.0,1797.0 C 6739.0,1831.0 6830.0,1885.0 6897.0,1919.0 C 7014.0,1977.0 7023.0,1980.0 7092.0,1980.0 C 7132.0,1980.0 7192.0,1974.0 7225.0,1966.0 C 7258.0,1958.0 7316.0,1949.0 7354.0,1945.0 C 7443.0,1936.0 7657.0,1845.0 7701.0,1797.0 C 7742.0,1752.0 7745.0,1732.0 7726.0,1609.0 L 7709.0,1500.0 L 7738.0,1433.0 C 7755.0,1395.0 7775.0,1340.0 7784.0,1308.0 C 7793.0,1277.0 7815.0,1234.0 7835.0,1210.0 C 7864.0,1175.0 7868.0,1165.0 7860.0,1144.0 C 7842.0,1099.0 7828.0,1076.0 7785.0,1028.0 L 7743.0,981.0 L 7730.0,847.0 L 7717.0,713.0 L 7763.0,641.0 C 7789.0,602.0 7815.0,570.0 7822.0,570.0 C 7839.0,570.0 7916.0,594.0 7962.0,614.0 C 7982.0,623.0 8011.0,647.0 8027.0,667.0 C 8042.0,688.0 8078.0,732.0 8106.0,765.0 C 8183.0,856.0 8230.0,931.0 8230.0,965.0 C 8231.0,990.0 8240.0,1002.0 8290.0,1038.0 C 8322.0,1061.0 8372.0,1089.0 8402.0,1099.0 C 8525.0,1142.0 8538.0,1150.0 8554.0,1190.0 C 8568.0,1225.0 8574.0,1229.0 8614.0,1235.0 C 8651.0,1241.0 8665.0,1250.0 8698.0,1289.0 C 8723.0,1318.0 8740.0,1350.0 8744.0,1375.0 C 8748.0,1397.0 8763.0,1437.0 8778.0,1464.0 C 8803.0,1509.0 8812.0,1517.0 8878.0,1543.0 C 8945.0,1570.0 8953.0,1577.0 8976.0,1621.0 C 9011.0,1691.0 9009.0,1772.0 8968.0,1907.0 C 8936.0,2010.0 8936.0,2013.0 8955.0,2024.0 C 8965.0,2030.0 8997.0,2056.0 9025.0,2081.0 C 9052.0,2106.0 9103.0,2146.0 9137.0,2168.0 C 9171.0,2191.0 9219.0,2235.0 9244.0,2266.0 C 9283.0,2313.0 9290.0,2329.0 9290.0,2365.0 C 9290.0,2403.0 9296.0,2415.0 9340.0,2463.0 C 9368.0,2493.0 9390.0,2520.0 9390.0,2523.0 C 9390.0,2525.0 9351.0,2549.0 9304.0,2576.0 L 9218.0,2624.0 L 9225.0,2694.0 C 9229.0,2733.0 9243.0,2801.0 9256.0,2845.0 C 9270.0,2889.0 9285.0,2957.0 9292.0,2995.0 C 9302.0,3061.0 9306.0,3068.0 9364.0,3130.0 C 9409.0,3177.0 9445.0,3204.0 9502.0,3232.0 C 9573.0,3266.0 9583.0,3275.0 9624.0,3338.0 C 9656.0,3388.0 9681.0,3414.0 9712.0,3431.0 C 9753.0,3454.0 9755.0,3457.0 9758.0,3507.0 C 9760.0,3536.0 9752.0,3593.0 9739.0,3641.0 C 9727.0,3687.0 9714.0,3777.0 9709.0,3840.0 C 9705.0,3903.0 9698.0,3962.0 9695.0,3971.0 C 9691.0,3982.0 9709.0,4003.0 9757.0,4042.0 C 9809.0,4084.0 9830.0,4109.0 9846.0,4148.0 L 9868.0,4199.0 L 9844.0,4215.0 C 9825.0,4227.0 9804.0,4229.0 9742.0,4224.0 L 9665.0,4218.0 L 9593.0,4292.0 L 9521.0,4365.0 L 9551.0,4412.0 C 9594.0,4477.0 9619.0,4481.0 9701.0,4434.0 C 9736.0,4413.0 9779.0,4383.0 9797.0,4367.0 C 9825.0,4341.0 9834.0,4338.0 9882.0,4341.0 L 9935.0,4345.0 L 9950.0,4282.0 L 9965.0,4220.0 L 10021.0,4220.0 L 10076.0,4220.0 L 10124.0,4285.0 L 10172.0,4351.0 L 10165.0,4423.0 C 10161.0,4462.0 10149.0,4512.0 10138.0,4533.0 C 10127.0,4555.0 10103.0,4612.0 10084.0,4662.0 L 10050.0,4752.0 L 10065.0,4813.0 C 10074.0,4847.0 10092.0,4904.0 10107.0,4940.0 C 10136.0,5014.0 10140.0,5079.0 10121.0,5163.0 C 10110.0,5213.0 10103.0,5224.0 10065.0,5250.0 L 10021.0,5281.0 L 9971.0,5255.0 C 9943.0,5241.0 9912.0,5230.0 9901.0,5230.0 C 9890.0,5230.0 9860.0,5212.0 9834.0,5189.0 C 9759.0,5124.0 9760.0,5124.0 9604.0,5159.0 C 9392.0,5208.0 9394.0,5207.0 9342.0,5259.0 C 9302.0,5299.0 9286.0,5308.0 9244.0,5314.0 C 9211.0,5319.0 9165.0,5339.0 9103.0,5376.0 C 9004.0,5435.0 8985.0,5438.0 8876.0,5420.0 C 8827.0,5412.0 8809.0,5403.0 8776.0,5371.0 C 8740.0,5336.0 8729.0,5331.0 8681.0,5329.0 C 8635.0,5326.0 8625.0,5329.0 8613.0,5347.0 C 8601.0,5365.0 8602.0,5377.0 8616.0,5431.0 C 8631.0,5484.0 8642.0,5503.0 8682.0,5541.0 C 8708.0,5566.0 8730.0,5594.0 8730.0,5605.0 C 8730.0,5615.0 8746.0,5643.0 8766.0,5666.0 C 8801.0,5710.0 8802.0,5710.0 8867.0,5710.0 C 8930.0,5710.0 8935.0,5712.0 8999.0,5759.0 C 9035.0,5786.0 9088.0,5819.0 9117.0,5834.0 C 9163.0,5857.0 9171.0,5865.0 9180.0,5902.0 C 9186.0,5926.0 9193.0,5952.0 9196.0,5960.0 C 9198.0,5969.0 9226.0,6002.0 9259.0,6034.0 C 9313.0,6088.0 9323.0,6093.0 9396.0,6110.0 C 9439.0,6120.0 9478.0,6126.0 9482.0,6124.0 C 9497.0,6115.0 9490.0,6071.0 9465.0,6015.0 C 9452.0,5984.0 9428.0,5914.0 9414.0,5859.0 C 9383.0,5743.0 9380.0,5758.0 9472.0,5510.0 C 9526.0,5366.0 9534.0,5354.0 9623.0,5279.0 C 9671.0,5238.0 9688.0,5230.0 9721.0,5230.0 C 9761.0,5230.0 9763.0,5232.0 9774.0,5282.0 C 9779.0,5306.0 9776.0,5310.0 9738.0,5322.0 C 9686.0,5340.0 9663.0,5375.0 9573.0,5578.0 C 9497.0,5750.0 9494.0,5780.0 9545.0,5851.0 C 9564.0,5878.0 9580.0,5908.0 9580.0,5919.0 C 9580.0,5929.0 9583.0,5952.0 9586.0,5969.0 C 9592.0,5997.0 9599.0,6002.0 9658.0,6020.0 L 9724.0,6040.0 L 9787.0,6019.0 C 9849.0,5999.0 9852.0,5999.0 9900.0,6016.0 L 9950.0,6034.0 L 9950.0,6094.0 C 9950.0,6146.0 9955.0,6163.0 9992.0,6224.0 C 10014.0,6263.0 10056.0,6329.0 10085.0,6370.0 C 10113.0,6411.0 10140.0,6450.0 10144.0,6457.0 C 10153.0,6474.0 10073.0,6512.0 9985.0,6534.0 C 9841.0,6570.0 9669.0,6690.0 9499.0,6877.0 C 9431.0,6951.0 9369.0,7029.0 9361.0,7049.0 C 9353.0,7069.0 9327.0,7131.0 9304.0,7186.0 L 9260.0,7288.0 L 9260.0,7493.0 C 9260.0,7687.0 9259.0,7703.0 9235.0,7768.0 C 9221.0,7806.0 9210.0,7857.0 9210.0,7882.0 C 9210.0,7922.0 9203.0,7933.0 9127.0,8025.0 C 9047.0,8120.0 9043.0,8128.0 9032.0,8193.0 L 9021.0,8261.0 L 9066.0,8335.0 L 9111.0,8409.0 L 9178.0,8412.0 C 9256.0,8415.0 9388.0,8403.0 9404.0,8391.0 C 9410.0,8387.0 9440.0,8369.0 9471.0,8352.0 L 9526.0,8321.0 L 9585.0,8360.0 C 9635.0,8393.0 9648.0,8408.0 9662.0,8447.0 C 9690.0,8528.0 9685.0,8586.0 9644.0,8655.0 C 9624.0,8688.0 9592.0,8731.0 9573.0,8752.0 C 9538.0,8788.0 9538.0,8789.0 9524.0,8927.0 C 9517.0,9003.0 9511.0,9139.0 9510.0,9230.0 L 9510.0,9396.0 L 9442.0,9457.0 C 9368.0,9523.0 9294.0,9564.0 9185.0,9600.0 C 9147.0,9613.0 9085.0,9636.0 9048.0,9651.0 L 8982.0,9678.0 L 8923.0,9643.0" fill="pink"/>
	<path d="M 9880.0,8352.0 C 9823.0,8328.0 9811.0,8318.0 9783.0,8270.0 C 9758.0,8230.0 9750.0,8204.0 9750.0,8170.0 L 9750.0,8125.0 L 9826.0,8083.0 L 9902.0,8041.0 L 9953.0,8069.0 C 9982.0,8085.0 10049.0,8108.0 10104.0,8121.0 L 10203.0,8143.0 L 10197.0,8208.0 C 10193.0,8244.0 10189.0,8274.0 10188.0,8275.0 C 10186.0,8276.0 10154.0,8300.0 10116.0,8328.0 C 10054.0,8375.0 10042.0,8380.0 9996.0,8380.0 C 9963.0,8379.0 9922.0,8369.0 9880.0,8352.0" fill="pink"/>
	<path d="M 10197.0,6967.0 C 10169.0,6960.0 10158.0,6952.0 10153.0,6931.0 C 10144.0,6901.0 10145.0,6802.0 10153.0,6793.0 C 10156.0,6790.0 10172.0,6798.0 10189.0,6809.0 C 10223.0,6833.0 10243.0,6890.0 10238.0,6944.0 C 10235.0,6976.0 10235.0,6976.0 10197.0,6967.0" fill="pink"/>
</svg>

<?xml version="1.0" standalone="no"?>
<!DOCTYPE svg PUBLIC "-//W3C//DTD SVG 20010904//EN"
 "http://www.w3.org/TR/2001/REC-SVG-20010904/DTD/svg10.dtd">
<svg version="1.0" xmlns="http://www.w3.org/2000/svg"
 width="1024.000000pt" height="1024.000000pt" viewBox="0 0 1024.000000 1024.000000"
 preserveAspectRatio="xMidYMid meet">
<metadata>
Created by potrace 1.10, written by Peter Selinger 2001-2011
</metadata>
<g transform="translate(0.000000,1024.000000) scale(0.100000,-0.100000)"
fill="#000000" stroke="none">
<path d="M8923 9643 c-32 -19 -76 -52 -98 -73 -50 -47 -96 -54 -226 -35 -52 8
-148 15 -215 15 l-121 0 -79 -47 -79 -48 -8 -55 c-6 -42 -15 -62 -39 -87 l-32
-33 42 -173 c23 -94 42 -175 42 -179 0 -3 -20 -14 -45 -23 -34 -14 -59 -16
-110 -10 -65 7 -66 7 -81 45 -13 32 -24 41 -77 64 -45 19 -79 26 -125 26 -56
0 -70 4 -120 37 -31 20 -111 60 -176 88 -117 51 -120 52 -170 41 -44 -10 -54
-17 -73 -51 -19 -34 -23 -55 -23 -142 0 -56 -5 -124 -12 -152 -9 -40 -8 -66 2
-120 11 -60 11 -78 -4 -135 -9 -36 -21 -119 -26 -183 -12 -137 -18 -167 -54
-247 -43 -94 -134 -190 -281 -294 l-130 -93 -50 6 c-27 3 -114 12 -192 19
-139 13 -145 15 -210 54 -52 31 -74 51 -92 86 -30 55 -82 79 -163 74 -52 -3
-53 -3 -69 -47 -13 -35 -24 -47 -52 -59 -35 -13 -37 -16 -31 -51 5 -29 0 -50
-20 -89 l-26 -52 -55 0 -55 0 7 -133 6 -133 -64 -46 c-35 -25 -95 -70 -133
-101 -37 -30 -85 -59 -105 -65 -56 -17 -124 -94 -162 -185 l-32 -77 -107 -57
-108 -58 -14 -65 -14 -65 58 -143 c32 -79 58 -149 58 -155 0 -7 5 -28 10 -47
8 -29 21 -43 74 -73 l65 -38 7 -55 7 -56 -90 -131 c-49 -73 -136 -202 -194
-287 l-106 -155 8 -64 7 -63 -130 -127 c-152 -148 -228 -192 -410 -241 -183
-50 -176 -46 -183 -89 -5 -32 -17 -46 -76 -91 l-70 -54 -137 -15 -137 -15
-135 53 c-74 28 -165 70 -202 92 -58 34 -75 39 -130 40 l-63 1 -68 79 c-57 66
-82 86 -147 119 -75 38 -82 44 -155 145 -76 106 -95 141 -95 173 0 26 126 148
179 173 80 37 82 65 7 107 -29 17 -56 40 -59 51 -3 13 12 43 48 94 45 62 95
162 95 190 0 9 -110 9 -162 1 -26 -5 -39 -13 -44 -28 -4 -11 -25 -52 -47 -89
-33 -57 -49 -73 -91 -94 -157 -78 -247 -146 -281 -211 -13 -26 -37 -67 -54
-91 -28 -42 -36 -47 -123 -73 -119 -36 -241 -38 -354 -7 -81 22 -241 104 -384
197 -47 31 -143 84 -214 119 -116 58 -142 66 -245 83 -106 17 -125 18 -206 5
-50 -7 -107 -21 -129 -30 -21 -9 -68 -22 -105 -28 l-66 -12 -5 -135 c-3 -74
-9 -142 -14 -150 -5 -8 -31 -45 -58 -82 -40 -54 -63 -75 -117 -104 -38 -20
-76 -49 -85 -64 -8 -15 -32 -42 -52 -60 -32 -27 -39 -42 -50 -103 -8 -40 -14
-76 -14 -82 0 -5 35 -26 77 -45 42 -19 109 -55 147 -80 60 -39 279 -130 396
-165 14 -4 70 -29 125 -55 84 -40 112 -59 173 -122 l73 -74 -26 -110 c-14 -60
-28 -117 -31 -126 -4 -13 8 -21 56 -39 55 -20 67 -30 139 -118 l79 -97 72 -11
c59 -9 110 -30 258 -103 208 -102 263 -138 323 -213 44 -56 44 -51 23 -187 -5
-33 -1 -40 92 -134 81 -83 110 -105 175 -135 65 -30 83 -44 111 -86 25 -37 41
-51 68 -57 155 -36 158 -37 177 -84 19 -48 37 -58 94 -52 31 3 36 9 95 121 78
150 97 165 227 178 51 4 166 9 255 9 246 0 339 -28 562 -171 64 -41 143 -87
175 -102 56 -27 65 -36 134 -140 87 -129 100 -161 100 -242 l1 -60 -46 -30
c-26 -18 -62 -56 -86 -93 l-41 -63 14 -61 14 -61 83 -31 c73 -27 86 -36 112
-76 16 -25 49 -59 72 -77 53 -40 113 -43 214 -12 38 12 80 21 94 21 84 -2 450
-95 486 -124 7 -4 14 -22 18 -39 3 -16 22 -72 43 -124 l37 -95 37 0 c22 0 71
16 121 39 133 63 127 64 248 -28 58 -44 120 -100 138 -125 41 -55 106 -81 177
-70 53 7 57 11 108 93 l37 61 60 0 c49 0 245 -37 347 -66 17 -5 28 -24 47 -83
22 -64 86 -320 86 -343 0 -5 15 -8 34 -8 33 0 34 1 51 65 19 70 17 101 -25
334 -11 63 -19 115 -18 116 2 1 39 29 83 62 44 34 135 88 202 122 117 58 126
61 195 61 40 0 100 -6 133 -14 33 -8 91 -17 129 -21 89 -9 303 -100 347 -148
41 -45 44 -65 25 -188 l-17 -109 29 -67 c17 -38 37 -93 46 -125 9 -31 31 -74
51 -98 29 -35 33 -45 25 -66 -18 -45 -32 -68 -75 -116 l-42 -47 -13 -134 -13
-134 46 -72 c26 -39 52 -71 59 -71 17 0 94 24 140 44 20 9 49 33 65 53 15 21
51 65 79 98 77 91 124 166 124 200 1 25 10 37 60 73 32 23 82 51 112 61 123
43 136 51 152 91 14 35 20 39 60 45 37 6 51 15 84 54 25 29 42 61 46 86 4 22
19 62 34 89 25 45 34 53 100 79 67 27 75 34 98 78 35 70 33 151 -8 286 -32
103 -32 106 -13 117 10 6 42 32 70 57 27 25 78 65 112 87 34 23 82 67 107 98
39 47 46 63 46 99 0 38 6 50 50 98 28 30 50 57 50 60 0 2 -39 26 -86 53 l-86
48 7 70 c4 39 18 107 31 151 14 44 29 112 36 150 10 66 14 73 72 135 45 47 81
74 138 102 71 34 81 43 122 106 32 50 57 76 88 93 41 23 43 26 46 76 2 29 -6
86 -19 134 -12 46 -25 136 -30 199 -4 63 -11 122 -14 131 -4 11 14 32 62 71
52 42 73 67 89 106 l22 51 -24 16 c-19 12 -40 14 -102 9 l-77 -6 -72 74 -72
73 30 47 c43 65 68 69 150 22 35 -21 78 -51 96 -67 28 -26 37 -29 85 -26 l53
4 15 -63 15 -62 56 0 55 0 48 65 48 66 -7 72 c-4 39 -16 89 -27 110 -11 22
-35 79 -54 129 l-34 90 15 61 c9 34 27 91 42 127 29 74 33 139 14 223 -11 50
-18 61 -56 87 l-44 31 -50 -26 c-28 -14 -59 -25 -70 -25 -11 0 -41 -18 -67
-41 -75 -65 -74 -65 -230 -30 -212 49 -210 48 -262 100 -40 40 -56 49 -98 55
-33 5 -79 25 -141 62 -99 59 -118 62 -227 44 -49 -8 -67 -17 -100 -49 -36 -35
-47 -40 -95 -42 -46 -3 -56 0 -68 18 -12 18 -11 30 3 84 15 53 26 72 66 110
26 25 48 53 48 64 0 10 16 38 36 61 35 44 36 44 101 44 63 0 68 2 132 49 36
27 89 60 118 75 46 23 54 31 63 68 6 24 13 50 16 58 2 9 30 42 63 74 54 54 64
59 137 76 43 10 82 16 86 14 15 -9 8 -53 -17 -109 -13 -31 -37 -101 -51 -156
-31 -116 -34 -101 58 -349 54 -144 62 -156 151 -231 48 -41 65 -49 98 -49 40
0 42 2 53 52 5 24 2 28 -36 40 -52 18 -75 53 -165 256 -76 172 -79 202 -28
273 19 27 35 57 35 68 0 10 3 33 6 50 6 28 13 33 72 51 l66 20 63 -21 c62 -20
65 -20 113 -3 l50 18 0 60 c0 52 5 69 42 130 22 39 64 105 93 146 28 41 55 80
59 87 9 17 -71 55 -159 77 -144 36 -316 156 -486 343 -68 74 -130 152 -138
172 -8 20 -34 82 -57 137 l-44 102 0 205 c0 194 -1 210 -25 275 -14 38 -25 89
-25 114 0 40 -7 51 -83 143 -80 95 -84 103 -95 168 l-11 68 45 74 45 74 67 3
c78 3 210 -9 226 -21 6 -4 36 -22 67 -39 l55 -31 59 39 c50 33 63 48 77 87 28
81 23 139 -18 208 -20 33 -52 76 -71 97 -35 36 -35 37 -49 175 -7 76 -13 212
-14 303 l0 166 -68 61 c-74 66 -148 107 -257 143 -38 13 -100 36 -137 51 l-66
27 -59 -35z"/>
<path d="M9880 8352 c-57 -24 -69 -34 -97 -82 -25 -40 -33 -66 -33 -100 l0
-45 76 -42 76 -42 51 28 c29 16 96 39 151 52 l99 22 -6 65 c-4 36 -8 66 -9 67
-2 1 -34 25 -72 53 -62 47 -74 52 -120 52 -33 -1 -74 -11 -116 -28z"/>
<path d="M10197 6967 c-28 -7 -39 -15 -44 -36 -9 -30 -8 -129 0 -138 3 -3 19
5 36 16 34 24 54 81 49 135 -3 32 -3 32 -41 23z"/>
</g>
</svg>
